webroot/assets/navigation/navigation-usage-3.svg

<svg xmlns="http://www.w3.org/2000/svg" width="1000" height="528"><path fill="#f0f0f0" d="M0 48h1000v480H0z"/><path fill="#151515" d="M0 309h1000v219H0z" opacity=".5"/><path fill="#fff" d="M0 48h1000v261H0z"/><path fill="#d2d2d2" d="M999 48h1v261h-1z"/><g fill="#06c"><path d="M703 254l-1.5 1.5 4.5 4.5h-10v2h10l-4.5 4.5 1.5 1.5 7-7zM608 254h80v14h-80z"/></g><g fill="#06c"><path d="M499 254l-1.5 1.5 4.5 4.5h-10v2h10l-4.5 4.5 1.5 1.5 7-7zM404 254h80v14h-80z"/></g><g transform="translate(-430 -1440)"><rect width="112" height="32" fill="#e00" rx="3" transform="translate(630 1685)"/><path fill="#fff" d="M654 1697h64v8h-64z"/></g><path fill="#d2d2d2" d="M32 212h936v1H32z"/><path fill="#06c" d="M608 172h64v8h-64zM608 148h64v8h-64zM608 124h64v8h-64zM608 100h64v8h-64z"/><path fill="#151515" d="M608 72h80v12h-80z"/><path fill="#06c" d="M404 172h64v8h-64zM404 148h64v8h-64zM404 124h64v8h-64zM404 100h64v8h-64z"/><path fill="#151515" d="M404 72h80v12h-80z"/><path fill="#06c" d="M200 172h64v8h-64zM200 148h64v8h-64zM200 124h64v8h-64zM200 100h64v8h-64z"/><path fill="#151515" d="M200 72h80v12h-80z"/><path fill="#d2d2d2" d="M0 48h1v261H0z"/><g transform="translate(-360 -3870) translate(0 3549)"><path fill="#151515" d="M360 321h1000v48H360z"/><path fill="#fff" d="M1280 354h16v4h-16z"/><g fill="none" stroke="#fff" transform="translate(4 1) translate(1276 331)"><circle cx="8" cy="8" r="8" stroke="none"/><circle cx="8" cy="8" r="7.5"/></g><path fill="#fff" d="M1248 354h16v4h-16z"/><g fill="none" stroke="#fff" transform="translate(-28 1) translate(1276 331)"><circle cx="8" cy="8" r="8" stroke="none"/><circle cx="8" cy="8" r="7.5"/></g><path fill="#fff" d="M1216 354h16v4h-16z"/><g fill="none" stroke="#fff" transform="translate(-60 1) translate(1276 331)"><circle cx="8" cy="8" r="8" stroke="none"/><circle cx="8" cy="8" r="7.5"/></g><path fill="#fff" d="M1184 354h16v4h-16z"/><g fill="none" stroke="#fff" transform="translate(-92 1) translate(1276 331)"><circle cx="8" cy="8" r="8" stroke="none"/><circle cx="8" cy="8" r="7.5"/></g><path fill="#fff" d="M740 341h48v8h-48zM676 341h48v8h-48zM548 341h48v8h-48zM452 337h72v16h-72z"/><circle cx="12" cy="12" r="12" fill="#e00" transform="translate(424 333)"/></g><path fill="#fff" d="M244 0h64v48h-64z"/><path fill="#6a6e73" d="M276 40l-4-4h8z"/><path fill="#151515" d="M252 20h48v8h-48z"/><path fill="#e00" d="M244 0h64v2h-64z"/><g fill="#f00" opacity=".03"><path d="M761 0h39v528h-39zM710 0h39v528h-39zM659 0h39v528h-39zM608 0h39v528h-39zM557 0h39v528h-39zM506 0h39v528h-39zM455 0h39v528h-39zM404 0h39v528h-39zM353 0h39v528h-39zM302 0h39v528h-39zM251 0h39v528h-39zM200 0h39v528h-39z"/></g></svg>

<svg xmlns="http://www.w3.org/2000/svg" width="1000" height="528" viewBox="0 0 1000 528"><defs><style>.a{fill:#f0f0f0;}.b,.g{fill:#151515;}.b{opacity:0.5;}.c{fill:#fff;}.d{fill:#d2d2d2;}.e{fill:#06c;}.f{fill:#e00;}.h,.m{fill:none;}.h{stroke:#fff;}.i{fill:#6a6e73;}.j{opacity:0.03;}.k{fill:red;}.l{stroke:none;}</style></defs><path class="a" d="M0,48H1000V528H0Z"/><path class="b" d="M0,309H1000V528H0Z"/><path class="c" d="M0,48H1000V309H0Z"/><path class="d" d="M999,48h1V309h-1Z"/><path class="e" d="M703,254l-1.5,1.5L706,260H696v2h10l-4.5,4.5L703,268l7-7Zm-95,0h80v14H608Z"/><path class="e" d="M499,254l-1.5,1.5L502,260H492v2h10l-4.5,4.5L499,268l7-7Zm-95,0h80v14H404Z"/><g transform="translate(-430 -1440)"><rect class="f" width="112" height="32" rx="3" transform="translate(630 1685)"/><path class="c" d="M654,1697h64v8H654Z"/></g><path class="d" d="M32,212H968v1H32Z"/><path class="e" d="M608,172h64v8H608Zm0-24h64v8H608Zm0-24h64v8H608Zm0-24h64v8H608Z"/><path class="g" d="M608,72h80V84H608Z"/><path class="e" d="M404,172h64v8H404Zm0-24h64v8H404Zm0-24h64v8H404Zm0-24h64v8H404Z"/><path class="g" d="M404,72h80V84H404Z"/><path class="e" d="M200,172h64v8H200Zm0-24h64v8H200Zm0-24h64v8H200Zm0-24h64v8H200Z"/><path class="g" d="M200,72h80V84H200Z"/><path class="d" d="M0,48H1V309H0Z"/><g transform="translate(-360 -321)"><path class="g" d="M360,321H1360v48H360Z"/><path class="c" d="M1280,354h16v4h-16Z"/><g class="h" transform="translate(1280 332)"><circle class="l" cx="8" cy="8" r="8"/><circle class="m" cx="8" cy="8" r="7.5"/></g><path class="c" d="M1248,354h16v4h-16Z"/><g class="h" transform="translate(1248 332)"><circle class="l" cx="8" cy="8" r="8"/><circle class="m" cx="8" cy="8" r="7.5"/></g><path class="c" d="M1216,354h16v4h-16Z"/><g class="h" transform="translate(1216 332)"><circle class="l" cx="8" cy="8" r="8"/><circle class="m" cx="8" cy="8" r="7.5"/></g><path class="c" d="M1184,354h16v4h-16Z"/><g class="h" transform="translate(1184 332)"><circle class="l" cx="8" cy="8" r="8"/><circle class="m" cx="8" cy="8" r="7.5"/></g><path class="c" d="M740,341h48v8H740Zm-64,0h48v8H676Zm-128,0h48v8H548Zm-96-4h72v16H452Z"/><circle class="f" cx="12" cy="12" r="12" transform="translate(424 333)"/></g><path class="c" d="M244,0h64V48H244Z"/><path class="i" d="M276,40l-4-4h8Z"/><path class="g" d="M252,20h48v8H252Z"/><path class="f" d="M244,0h64V2H244Z"/><g class="j"><path class="k" d="M761,0h39V528H761ZM710,0h39V528H710ZM659,0h39V528H659ZM608,0h39V528H608ZM557,0h39V528H557ZM506,0h39V528H506ZM455,0h39V528H455ZM404,0h39V528H404ZM353,0h39V528H353ZM302,0h39V528H302ZM251,0h39V528H251ZM200,0h39V528H200Z"/></g></svg>
